!!!ONB: MCCC : IJH0452_04 : Extracted Monophonic Melody
!!!COM: Haydn, Joseph
!!!OPR: String Quartet in F major
!!!OMV: 4
!!!SCT: Hob.III:26 ; Op.17 No.2
!!!ODT: 1771///
**kern
*thru
*k[b-]
*F:
*clefG
*M2/4
8c
=1
2f
=2
8e
4r
8c
=3
2g
=4
8f
4r
8cc[
=5
8cc]
4a
8ff[
=6
8ff]
4dd
16d
16dd
=7
8cc
16b-
16a
8g
16a
16b-
=8
4b-
8a
8cc[
=9
8cc]
4a
8ff[
=10
8ff]
4dd
16d
16dd
=11
8cc
16b-
16a
8g
16f
16e
=12
4f
16r
16aa
16gg
16aa
=13
16ff
16cc
16b-
16cc
16a
16f
16e
16f
=14
4A
16r
16gg
16ff
16gg
=15
16ee
16cc
16b
16cc
16g
16e
16d
16e
=16
4G
16r
16aa
16gg
16aa
=17
16ff
16gg
16ee
16ff
16dd
16ee
16cc
16dd
=18
16b
16cc
16a
16b
16g
16a
16f
16g
=19
16e
16G
16g
16G
16f
16G
16b
16G
=20
16cc
16G
16g
16G
16f
16G
16d
16G
=21
16e
16G
16g
16G
16f
16G
16b
16G
=22
16cc
16G
16g
16G
16f
16G
16d
16G
=23
16e
16G
16g
16G
16a
16G
16b
16G
=24
16cc
16G
16b
16G
16cc
16G
16dd
16G
=25
16ee
16G
16dd
16G
16ee
16G
16ff
16G
=26
4gg
8r
8gg
=27
2ccc
=28
2bb
=29
2fff
=30
2eee
=31
2aaa
=32
4a
4dd
=33
2cc
=34
8b
8cc
8b
8cc
=35
2b[
=36
8b]
8cc
8b
8cc
=37
2b[
=38
8b]
8cc
8dd
8ee
=39
4ff
4r
=40
4r
16r
16ee
16dd
16ee
=41
16cc
16dd
16b
16cc
16a
16b
16g
16a
=42
4f
16r
16ff
16ee
16ff
=43
16dd
16ee
16cc
16dd
16b
16cc
16a
16b
=44
4g
16r
16gg
16ff
16gg
=45
16ee
16ff
16dd
16ee
16cc
16dd
16b
16cc
=46
4a
16r
16aa
16gg
16aa
=47
16ff
16gg
16ee
16ff
16dd
16ee
16cc
16dd
=48
4b
16r
16dd
16cc
16dd
=49
16b
16cc
16a
16b
16g
16a
16f
16g
=50
4e
4g
=51
2cc[
=52
4cc]
4b
=53
2dd[
=54
4dd]
4cc
=55
2ee[
=56
4ee]
4dd
=57
2ff[
=58
4ff]
4ee
=59
4aa
4bb
=60
4ccc
4r
=61
2f#
=62
16g
16a
16f#
16a
16g
16a
16f
16g
=63
16e
16f
16d
16e
16c
16g
16f#
16a
=64
16g
16a
16f#
16a
16g
16a
16f
16g
=65
16e
16f
16d
16e
16c
16g
16f#
16a
=66
16g
16a
16f#
16a
8g
16g#
16b
=67
16a
16b
16g#
16b
8a
16b
16dd
=68
16cc
16dd
16b
16cc
16a
16b
16g
16a
=69
4f
4aa
=70
4f#
4ccc
=71
2g
=72
2dd
=73
4.cc
8g
=74
4a
4b
=75
4.cc
8G
=76
4A
4B
=77
16c
16e
16d
16f
16e
16g
16f
16a
=78
16g
16a
16b-
16cc
16b-
16a
16g
16f
=79
4e
8r
8A
=80
2g
=81
4f
8r
8A
=82
2g#
=83
4a
16r
16aa
16gg
16aa
=84
16ff
16gg
16ee
16ff
16dd
16ee
16cc
16dd
=85
16b-
16cc
16a
16b-
16g
16gg
16ff
16gg
=86
16ee
16ff
16dd
16ee
16cc
16dd
16b-
16cc
=87
16a
16b-
16g
16a
16f
16ff
16ee
16ff
=88
16dd
16ee
16cc
16dd
16b-
16cc
16a
16b-
=89
16g
16a
16f
16g
16e
16ee
16dd
16ee
=90
16cc#
16dd
16b
16cc#
16a
16gg
16ff
16ee
=91
8ff
8cc#
8dd
8cc
=92
8b-
8f#
8g
8ff
=93
8ee
8b
8cc
8b-
=94
8a
8e
8f
8ee-
=95
8dd
8a
16b-
16cc
16a
16b-
=96
16g
16b-
16dd
16cc
16b-
16a
16g
16f
=97
4e
8r
8c
=98
2f
=99
4e
8r
8c
=100
2g
=101
8f
4r
8cc[
=102
8cc]
4a
8ff[
=103
8ff]
4dd
16d
16dd
=104
8cc
16b-
16a
8g
16a
16b-
=105
4b-
8a
8cc[
=106
8cc]
4a
8ff[
=107
8ff]
4dd
8gg[
=108
8gg]
4ee
8aa[
=109
8aa]
4ff
8bb-[
=110
8bb-]
4bb-
8aa[
=111
8aa]
4gg
8gg[
=112
16gg]
16cc
16ccc
16cc
16bb-
16cc
16aa
16cc
=113
16gg
16cc
16aa
16cc
16gg
16cc
16ff
16cc
=114
16ee
16cc
16ccc
16cc
16bb-
16cc
16aa
16cc
=115
16gg
16cc
16aa
16cc
16gg
16cc
16ff
16cc
=116
16ee
16cc
16ff
16cc
16gg
16cc
16aa
16cc
=117
4bb-
8r
8cc
=118
2ff
=119
2ee
=120
2bb-
=121
2aa
=122
2ddd
=123
4dd
4gg
=124
2ff
=125
8ee
8ff
8ee
8ff
=126
2ee[
=127
8ee]
8ff
8ee
8ff
=128
2ee[
=129
8ee]
8ff
8gg
8aa
=130
4bb-
4r
=131
4r
16r
16aa
16gg
16aa
=132
16ff
16gg
16ee
16ff
16dd
16ee
16cc
16dd
=133
4b-
16r
16bb-
16aa
16bb-
=134
16gg
16aa
16ff
16gg
16ee
16ff
16dd
16ee
=135
4cc
16r
16ccc
16bb-
16ccc
=136
16aa
16bb-
16gg
16aa
16ff
16gg
16ee
16ff
=137
4dd
16r
16ddd
16ccc
16ddd
=138
16bb-
16ccc
16aa
16bb-
16gg
16aa
16ff
16gg
=139
4ee
16r
16gg
16ff
16gg
=140
16ee
16ff
16dd
16ee
16cc
16dd
16b-
16cc
=141
4a
4cc
=142
2ff[
=143
4ff]
4ee
=144
2gg[
=145
4gg]
4ff
=146
2aa[
=147
4aa]
4gg
=148
2bb-[
=149
4bb-]
4aa
=150
2gg
=151
4ff
4r
=152
2b
=153
16cc
16dd
16b
16dd
16cc
16dd
16b-
16cc
=154
16a
16b-
16g
16a
16f
16cc
16b
16dd
=155
16cc
16dd
16b
16dd
16cc
16dd
16b-
16cc
=156
16a
16b-
16g
16a
16f
16cc
16b
16dd
=157
16cc
16dd
16b
16dd
8cc
16cc#
16ee
=158
16dd
16ee
16cc#
16ee
8dd
16ee
16gg
=159
16ff
16gg
16ee
16ff
16dd
16ee
16cc
16dd
=160
4b-
4ddd
=161
4b
4fff
=162
2c
=163
2gg
=164
4.ff
8cc
=165
4dd
4ee
=166
4.ff
8c
=167
4d
4e
=168
16f
16a
16g
16b-
16a
16cc
16b-
16dd
=169
16cc
16dd
16ee-
16ff
16ee-
16dd
16cc
16b-
=170
4a
4r
=171
4f
4ff
=172
4ff
4r
==
*-
